X: 1
T:Mason's Apron
M:4/4
L:1/8
R:Reel
K:A
ed|"A"c2 A2 ABAF|"A"EFAB c2 BA|"Bm"d2 B2 BcBA|"E7"Bcde gfed|!
"A"c2 A2 ABAF|"A"EFAB dcBA|"Bm"Bcde "A"fefa|"E7"edcB "A"A2:|!
|:ed|"A"cAeA fAeA|"A"cAeA "F#"fedc|"Bm"dBfB gBfB|"Bm"dBfB "E7"gfed|!
"A"cAeA fAeA|"A"cAeA "F#"fedc|"Bm"Bcde "A"fefa|"E7"edcB "A"A2:||
